libs/ui/packages/crypto-icons/src/svg/HILO.svg

<svg xmlns="http://www.w3.org/2000/svg" width="3270" height="3270" viewBox="0 0 3270 3270" fill="none"><path fill="#000" fill-rule="evenodd" d="M3122.13 1635.06C3122.13 813.781 2456.35 148 1635.06 148 813.781 148 148 813.781 148 1635.06c0 821.29 665.781 1487.07 1487.06 1487.07 821.29 0 1487.07-665.78 1487.07-1487.07M1635.06 2942.85c722.27 0 1307.79-585.52 1307.79-1307.79 0-722.264-585.52-1307.778-1307.79-1307.778-722.264 0-1307.779 585.514-1307.779 1307.778 0 722.27 585.515 1307.79 1307.779 1307.79" clip-rule="evenodd"/><path fill="#000" d="m1743.69 1073.46 408.25 408.26h231.27c-.52-1-1.04-2-1.57-3l-1.38-2.58c-15.02-27.8-34.27-53.91-57.75-77.39l-452.05-452.056c-130.26-130.259-341.45-130.259-471.71 0L946.698 1398.75c-24.21 24.21-43.92 51.21-59.13 79.97l-.108.21q-.736 1.395-1.459 2.79h231.259l408.26-408.26c60.25-60.24 157.92-60.24 218.17 0m-218.17 1122.27-408.26-408.26H886q.775 1.515 1.567 3c.456.87.916 1.73 1.38 2.59 15.016 27.79 34.267 53.91 57.751 77.39l452.052 452.06c130.26 130.25 341.45 130.25 471.71 0l452.05-452.06c24.21-24.21 43.92-51.21 59.13-79.98.53-.99 1.05-1.99 1.57-3h-231.26l-408.26 408.26c-60.25 60.25-157.92 60.25-218.17 0"/></svg>

<svg width="3270" height="3270" viewBox="0 0 3270 3270" fill="none" xmlns="http://www.w3.org/2000/svg">
<path fill-rule="evenodd" clip-rule="evenodd" d="M3122.13 1635.06C3122.13 813.781 2456.35 148 1635.06 148C813.781 148 148 813.781 148 1635.06C148 2456.35 813.781 3122.13 1635.06 3122.13C2456.35 3122.13 3122.13 2456.35 3122.13 1635.06ZM1635.06 2942.85C2357.33 2942.85 2942.85 2357.33 2942.85 1635.06C2942.85 912.796 2357.33 327.282 1635.06 327.282C912.796 327.282 327.281 912.796 327.281 1635.06C327.281 2357.33 912.796 2942.85 1635.06 2942.85Z" fill="black"/>
<path d="M1743.69 1073.46L2151.94 1481.72H2383.21C2382.69 1480.72 2382.17 1479.72 2381.64 1478.72C2381.18 1477.86 2380.72 1477 2380.26 1476.14C2365.24 1448.34 2345.99 1422.23 2322.51 1398.75L1870.46 946.694C1740.2 816.435 1529.01 816.435 1398.75 946.694L946.698 1398.75C922.488 1422.96 902.778 1449.96 887.568 1478.72C887.532 1478.79 887.496 1478.86 887.46 1478.93C886.969 1479.86 886.483 1480.79 886.001 1481.72H1117.26L1525.52 1073.46C1585.77 1013.22 1683.44 1013.22 1743.69 1073.46Z" fill="black"/>
<path d="M1525.52 2195.73L1117.26 1787.47H886C886.517 1788.48 887.039 1789.48 887.567 1790.47C888.023 1791.34 888.483 1792.2 888.947 1793.06C903.963 1820.85 923.214 1846.97 946.698 1870.45L1398.75 2322.51C1529.01 2452.76 1740.2 2452.76 1870.46 2322.51L2322.51 1870.45C2346.72 1846.24 2366.43 1819.24 2381.64 1790.47C2382.17 1789.48 2382.69 1788.48 2383.21 1787.47H2151.95L1743.69 2195.73C1683.44 2255.98 1585.77 2255.98 1525.52 2195.73Z" fill="black"/>
</svg>
